svg/300/sharp/screenshot_frame-fill.svg

<svg xmlns="http://www.w3.org/2000/svg" width="48" height="48" viewBox="0 -960 960 960"><path d="M220.001-687.307v-172.692h172.692v45.384H265.385v127.308h-45.384Zm0 587.306v-172.692h45.384v127.308h127.308v45.384H220.001Zm474.614-587.306v-127.308H567.307v-45.384h172.692v172.692h-45.384ZM567.307-100.001v-45.384h127.308v-127.308h45.384v172.692H567.307Z"/></svg>

<svg xmlns="http://www.w3.org/2000/svg" width="48" height="48" viewBox="0 -960 960 960"><path d="M220-687.31V-860h172.69v45.39h-127.3v127.3H220ZM220-100v-172.69h45.39v127.3h127.3V-100H220Zm474.61-587.31v-127.3h-127.3V-860H740v172.69h-45.39ZM567.31-100v-45.39h127.3v-127.3H740V-100H567.31Z"/></svg>
